icons/yarn.svg

<svg width="16" height="16" viewBox="0 0 16 16" fill="none" xmlns="http://www.w3.org/2000/svg">
<path d="M7.67 3.15C7.87705 2.72094 8.15801 2.33167 8.5 2C8.6959 2.3533 8.80875 2.74658 8.83 3.15L9.5 3C9.5 3 10.5 5 8.83 7.75C9.35166 8.13875 9.74288 8.67684 9.95182 9.29295C10.1608 9.90906 10.1776 10.5741 10 11.2C11.72 10.62 12.3 10.05 12.87 10.05C12.9452 10.0486 13.02 10.0625 13.0897 10.0906C13.1595 10.1188 13.2229 10.1607 13.2761 10.2139C13.3293 10.2671 13.3712 10.3305 13.3994 10.4003C13.4275 10.47 13.4414 10.5448 13.44 10.62C13.44 10.62 13.52 11 12.52 11.5L10.52 12.5C9.62226 13.085 8.58919 13.4293 7.52 13.5C6.35 13.5 5.52 13.58 5.52 13C5.54635 12.6176 5.7181 12.2598 6 12H5.5C5.5 12 4.65 13.5 3.5 13.5C2.35 13.5 3.5 12.5 3.5 12.5C2.5 12.5 2.85 10.57 4 10C3.80207 9.68267 3.68379 9.32218 3.65525 8.94927C3.62671 8.57636 3.68874 8.20208 3.83607 7.85831C3.98339 7.51455 4.21164 7.2115 4.50137 6.97499C4.79109 6.73848 5.1337 6.57552 5.5 6.5C4.92 5.92 4.5 4.69 5 4.5C5.45078 4.30952 5.80952 3.95078 6 3.5C6.2375 3.32633 6.50929 3.20528 6.79726 3.14493C7.08523 3.08457 7.38275 3.0863 7.67 3.15Z" fill="#3193BC"/>
</svg>

<svg xmlns="http://www.w3.org/2000/svg" width="16" height="16" fill="none"><path fill="#3193BC" d="M7.67 3.15A4.06 4.06 0 0 1 8.5 2c.196.353.309.747.33 1.15L9.5 3s1 2-.67 4.75A3.21 3.21 0 0 1 10 11.2c1.72-.58 2.3-1.15 2.87-1.15a.56.56 0 0 1 .57.57s.08.38-.92.88l-2 1a6.25 6.25 0 0 1-3 1c-1.17 0-2 .08-2-.5A1.5 1.5 0 0 1 6 12h-.5s-.85 1.5-2 1.5 0-1 0-1c-1 0-.65-1.93.5-2.5a2.32 2.32 0 0 1 1.5-3.5c-.58-.58-1-1.81-.5-2 .45-.19.81-.55 1-1a2.07 2.07 0 0 1 1.67-.35Z"/></svg>
